svg/fluentui-system-icons/ic_fluent_map_24_regular.svg

<svg width="24" height="24" viewBox="0 0 24 24" fill="none" xmlns="http://www.w3.org/2000/svg">
<path d="M9.20337 3.9993L9.25042 3.99805L9.29617 3.99926C9.31861 4.00055 9.34109 4.00288 9.36355 4.00628L9.37963 4.01009C9.46504 4.02381 9.54992 4.05432 9.63082 4.10224L9.68268 4.13578L14.753 7.70105L19.82 4.13913C20.2878 3.81034 20.9215 4.10586 20.9944 4.6482L21.0014 4.75269V15.3852C21.0014 15.5945 20.914 15.7926 20.7632 15.9334L20.6827 15.9988L15.1827 19.8652C14.9158 20.0528 14.5948 20.0371 14.3549 19.8883L9.25002 16.297L4.18035 19.8618C3.71263 20.1906 3.07889 19.8951 3.00595 19.3527L2.99902 19.2483V8.61572C2.99902 8.4064 3.08638 8.20832 3.23714 8.06755L3.3177 8.00216L8.8177 4.13578C8.8817 4.09079 8.94882 4.05749 9.01717 4.03491L9.13964 4.0069L9.20337 3.9993ZM19.5014 6.1967L15.5014 9.00861V17.8076L19.5014 14.9957V6.1967ZM8.49902 6.19335L4.49902 9.00526V17.8042L8.49902 14.9923V6.19335ZM10.0014 6.19335V14.9923L14.0014 17.8042V9.00526L10.0014 6.19335Z" fill="#212121"/>
</svg>

<svg xmlns="http://www.w3.org/2000/svg" width="24" height="24"><path d="m9.203 4 .047-.002.046.001a.73.73 0 0 1 .068.007l.016.004a.71.71 0 0 1 .25.092l.053.034 5.07 3.565L19.82 4.14a.75.75 0 0 1 1.174.51l.007.104v10.632a.75.75 0 0 1-.238.548l-.08.066-5.5 3.866a.744.744 0 0 1-.828.023L9.25 16.297l-5.07 3.565a.75.75 0 0 1-1.174-.51l-.007-.104V8.616a.75.75 0 0 1 .238-.548l.08-.066 5.5-3.866a.762.762 0 0 1 .2-.101l.123-.028.063-.008Zm10.298 2.197-4 2.812v8.799l4-2.812v-8.8ZM8.5 6.193l-4 2.812v8.8l4-2.813V6.193Zm1.502 0v8.8l4 2.811V9.005l-4-2.812Z"/></svg>
